coffe/js.svg

<svg width="48" height="48" viewBox="0 0 48 48" fill="none" xmlns="http://www.w3.org/2000/svg">
<path d="M44.1145 36.5519C43.7702 34.3621 42.372 32.5228 38.2304 30.8077C36.7917 30.1325 35.1878 29.649 34.7099 28.5355C34.5402 27.8875 34.5177 27.5224 34.625 27.1302C34.9333 25.8572 36.4212 25.4604 37.6004 25.8254C38.36 26.0854 39.0789 26.6831 39.5126 27.6367C41.5408 26.2955 41.5366 26.3043 42.9528 25.3825C42.4343 24.5616 42.1576 24.1827 41.8182 23.8315C40.5984 22.44 38.9363 21.7234 36.2781 21.7782L34.8935 21.9611C33.5666 22.3035 32.3021 23.0149 31.5606 23.9685C29.3357 26.5467 29.9702 31.0589 32.6776 32.9158C35.3448 34.9603 39.2629 35.4254 39.7634 37.3372C40.2504 39.6777 38.0791 40.4353 35.9211 40.1661C34.3307 39.8283 33.4461 39.0028 32.4899 37.5017C30.7444 38.5332 30.7299 38.5418 28.965 39.5784L28.9621 39.5801L28.9201 39.6047C29.3492 40.5629 29.8002 40.9967 30.5195 41.8268C33.9241 45.3536 42.4437 45.1803 43.9718 39.8421C44.0337 39.6589 44.4452 38.4365 44.1145 36.5519Z" fill="#A07250"/>
<path d="M26.5116 22.0608H22.1155L22.0975 33.6681C22.0975 36.1366 22.2225 38.3996 21.8294 39.0932C21.1863 40.4575 19.5196 40.2884 18.7601 40.0238C17.9871 39.6358 17.594 39.0841 17.1386 38.3042C17.0135 38.0803 16.9197 37.9069 16.8882 37.8935L13.3139 40.129C13.9082 41.3747 14.7838 42.456 15.9052 43.1584C17.5805 44.1852 19.832 44.5001 22.1868 43.9479C23.7194 43.492 25.0417 42.5476 25.7341 41.1101C26.735 39.2255 26.5202 36.9446 26.5112 34.4216C26.5338 30.3054 26.5116 26.19 26.5116 22.0608Z" fill="#A07250"/>
<path fill-rule="evenodd" clip-rule="evenodd" d="M0.960907 0H47.9609V48H0.960907V0ZM38.2304 30.8077C42.372 32.5228 43.7702 34.3621 44.1145 36.5519C44.4452 38.4365 44.0337 39.6589 43.9718 39.8421C42.4437 45.1803 33.9241 45.3536 30.5195 41.8268C29.8002 40.9967 29.3492 40.5629 28.9201 39.6047L28.9621 39.5801L28.965 39.5784C30.7299 38.5418 30.7444 38.5332 32.4899 37.5017C33.4461 39.0028 34.3307 39.8283 35.9211 40.1661C38.0791 40.4353 40.2504 39.6777 39.7634 37.3372C39.2629 35.4254 35.3448 34.9603 32.6776 32.9158C29.9702 31.0589 29.3357 26.5467 31.5606 23.9685C32.3021 23.0149 33.5666 22.3035 34.8935 21.9611L36.2781 21.7782C38.9363 21.7234 40.5984 22.44 41.8182 23.8315C42.1576 24.1827 42.4343 24.5616 42.9528 25.3825C41.5366 26.3043 41.5408 26.2955 39.5126 27.6367C39.0789 26.6831 38.36 26.0854 37.6004 25.8254C36.4212 25.4604 34.9333 25.8572 34.625 27.1302C34.5177 27.5224 34.5402 27.8875 34.7099 28.5355C35.1878 29.649 36.7917 30.1325 38.2304 30.8077ZM22.1155 22.0608H26.5116C26.5116 26.19 26.5338 30.3054 26.5112 34.4216C26.5202 36.9446 26.735 39.2255 25.7341 41.1101C25.0417 42.5476 23.7194 43.492 22.1868 43.9479C19.832 44.5001 17.5805 44.1852 15.9052 43.1584C14.7838 42.456 13.9082 41.3747 13.3139 40.129L16.8882 37.8935C16.9197 37.9069 17.0135 38.0803 17.1386 38.3042C17.594 39.0841 17.9871 39.6358 18.7601 40.0238C19.5196 40.2884 21.1863 40.4575 21.8294 39.0932C22.2225 38.3996 22.0975 36.1366 22.0975 33.6681L22.1155 22.0608Z" fill="#E3C4AD"/>
</svg>

<svg xmlns="http://www.w3.org/2000/svg" width="48" height="48" fill="none"><path fill="#A07250" d="M44.11 36.55c-.34-2.19-1.74-4.03-5.88-5.74-1.44-.68-3.04-1.16-3.52-2.27-.17-.65-.2-1.02-.09-1.41.31-1.27 1.8-1.67 2.98-1.3a3.3 3.3 0 0 1 1.91 1.8l3.44-2.25c-.52-.82-.8-1.2-1.13-1.55-1.22-1.39-2.88-2.1-5.54-2.05l-1.39.18a6.26 6.26 0 0 0-3.33 2c-2.22 2.59-1.59 7.1 1.12 8.96 2.66 2.04 6.58 2.5 7.08 4.42.49 2.34-1.68 3.1-3.84 2.83-1.59-.34-2.47-1.17-3.43-2.67l-3.53 2.08-.04.02c.43.96.88 1.4 1.6 2.23 3.4 3.52 11.92 3.35 13.45-1.99.06-.18.48-1.4.14-3.29ZM26.51 22.06h-4.4l-.01 11.6c0 2.48.12 4.74-.27 5.43-.64 1.37-2.31 1.2-3.07.93-.77-.38-1.17-.94-1.62-1.72-.13-.22-.22-.4-.25-.4l-3.58 2.23a7.17 7.17 0 0 0 2.6 3.03 8.38 8.38 0 0 0 6.28.79 5.57 5.57 0 0 0 3.54-2.84c1-1.88.79-4.17.78-6.69.02-4.11 0-8.23 0-12.36Z"/><path fill="#E3C4AD" fill-rule="evenodd" d="M.96 0h47v48h-47V0Zm37.27 30.8c4.14 1.72 5.54 3.56 5.88 5.75a6.74 6.74 0 0 1-.14 3.3c-1.53 5.33-10.05 5.5-13.45 1.98-.72-.83-1.17-1.27-1.6-2.23l.04-.02 3.53-2.08c.96 1.5 1.84 2.33 3.43 2.67 2.16.27 4.33-.5 3.84-2.83-.5-1.91-4.42-2.38-7.08-4.42-2.71-1.86-3.34-6.37-1.12-8.95.74-.96 2-1.67 3.33-2l1.39-.2c2.66-.05 4.32.67 5.54 2.06.34.35.61.73 1.13 1.55l-3.44 2.26a3.3 3.3 0 0 0-1.91-1.81c-1.18-.37-2.67.03-2.98 1.3-.1.4-.08.76.09 1.4.48 1.12 2.08 1.6 3.52 2.28Zm-16.11-8.74h4.4v12.36c0 2.52.21 4.8-.79 6.69a5.57 5.57 0 0 1-3.54 2.84c-2.36.55-4.61.24-6.28-.8-1.13-.7-2-1.78-2.6-3.02l3.58-2.24c.03.02.12.19.25.41.45.78.85 1.34 1.62 1.72.76.27 2.43.44 3.07-.93.4-.69.27-2.95.27-5.42l.02-11.6Z" clip-rule="evenodd"/></svg>
